X: 1835
T: Rita Baker's Polka
B: australian traditional tunes wiki
M:2/4
L:1/8
R: Polka
Q: 1/4=100
K:D
V:1 
|:"D"DF AB/2A/2|FA A2|DF AB/2A/2|"A"FE E2|
"D"DF AB/2A/2|FA A2|"G"dd "A"ed/2e/2|"D"fd d>B:|
|:"D"Ad f>e|"G"dB "D"A>A|Ad cd|"A"fe e2|
"D"Ad f>e|"G"dB "D"A>A|Ad "A"cd|"D"ed d2:||
NOTES 
This is a really easy, very effective polka, variants of which come from an area known as the Nulla, near Kempsey, NSW. The Nulla has been a hotbed for fiddlers over the past 100 years. It is where David Gordon Kirkpatrick, aka Slim Dusty, came from.
% abcbook-tune_id 6342d53a31a3d85e49cc3ee9


% abcbook-boost 0
% abcbook-tablature 
% abcbook-transpose 
% abcbook-lastupdated 1665324386865
% abcbook-soundfonts 
% abcbook-repeats 1
% NFF Book 2006
%%begintext align
%%endtext

